static/img/in-field/lists-selected.svg

<svg fill="none" height="57" viewBox="0 0 511 57" width="511" xmlns="http://www.w3.org/2000/svg"><path d="m1.5 1.8h508v54h-508z" fill="#dcedf9"/><path d="m18.6484 37.7998v-15.7051h1.8262v14.0723h6.9717v1.6328zm13.2588-11.7734v11.7734h-1.7832v-11.7734zm-.8701-4.4043c.2936 0 .5443.0967.752.29.2148.1862.3222.4798.3222.8809 0 .3938-.1074.6875-.3222.8808-.2077.1934-.4584.2901-.752.2901-.3079 0-.5657-.0967-.7734-.2901-.2005-.1933-.3008-.487-.3008-.8808 0-.4011.1003-.6947.3008-.8809.2077-.1933.4655-.29.7734-.29zm12.5176 12.955c0 .752-.1898 1.3858-.5693 1.9014-.3724.5085-.9096.8916-1.6114 1.1494-.6946.2578-1.5254.3867-2.4922.3867-.8235 0-1.5361-.0644-2.1377-.1933-.6015-.1289-1.1279-.3115-1.5791-.5479v-1.6435c.4799.2363 1.0528.4512 1.7188.6445.666.1934 1.3463.2901 2.041.2901 1.0169 0 1.7546-.1648 2.2129-.4942s.6875-.777.6875-1.3428c0-.3222-.0931-.6051-.2793-.8486-.179-.2506-.4834-.4906-.9131-.7197-.4297-.2363-1.0241-.4942-1.7832-.7735-.7519-.2864-1.4036-.5693-1.9551-.8486-.5442-.2864-.9668-.6338-1.2675-1.042-.2937-.4082-.4405-.9381-.4405-1.5898 0-.9955.4011-1.7582 1.2031-2.2881.8093-.5371 1.8692-.8057 3.1797-.8057.709 0 1.3715.0716 1.9873.2149.6231.136 1.2032.3222 1.7403.5586l-.6016 1.4287c-.487-.2077-1.0062-.3832-1.5576-.5264s-1.1136-.2148-1.6865-.2148c-.8236 0-1.4574.136-1.9014.4082-.4368.2721-.6553.6445-.6553 1.1172 0 .3652.1003.666.3008.9023.2077.2363.5371.4583.9883.666s1.0456.4512 1.7832.7305c.7376.2721 1.375.555 1.9121.8486.5371.2865.9489.6374 1.2354 1.0527.2936.4082.4404.9346.4404 1.5791zm6.9209 1.9766c.2936 0 .5944-.0251.9023-.0752.308-.0501.5586-.111.752-.1826v1.3857c-.2077.0931-.4977.1719-.8701.2364-.3653.0644-.7233.0966-1.0743.0966-.623 0-1.1888-.1074-1.6972-.3222-.5085-.222-.9167-.5944-1.2246-1.1172-.3008-.5228-.4512-1.2461-.4512-2.1699v-6.9824h-1.6758v-.8702l1.6865-.6982.709-2.5566h1.0742v2.7285h3.4483v1.3965h-3.4483v6.9287c0 .7376.1683 1.289.5049 1.6543.3438.3652.7985.5478 1.3643.5478zm10.5224 1.2461v-15.7051h1.8262v15.7051zm9.9288-1.2461c.2936 0 .5944-.0251.9023-.0752s.5586-.111.752-.1826v1.3857c-.2077.0931-.4978.1719-.8702.2364-.3652.0644-.7233.0966-1.0742.0966-.623 0-1.1888-.1074-1.6972-.3222-.5085-.222-.9167-.5944-1.2247-1.1172-.3007-.5228-.4511-1.2461-.4511-2.1699v-6.9824h-1.6758v-.8702l1.6865-.6982.709-2.5566h1.0742v2.7285h3.4483v1.3965h-3.4483v6.9287c0 .7376.1683 1.289.5049 1.6543.3437.3652.7985.5478 1.3643.5478zm8.8222-10.7422c1.0026 0 1.862.222 2.5781.666.7162.444 1.264 1.0671 1.6436 1.8692.3796.7949.5693 1.7259.5693 2.7929v1.1065h-8.1318c.0215 1.3822.3652 2.4349 1.0313 3.1582.666.7233 1.6041 1.085 2.8144 1.085.7448 0 1.4037-.0681 1.9766-.2041.5729-.1361 1.1673-.3366 1.7832-.6016v1.5684c-.5944.2649-1.1852.4583-1.7725.58-.5801.1218-1.2676.1826-2.0625.1826-1.1315 0-2.1198-.2291-2.9648-.6875-.8379-.4654-1.4896-1.1458-1.9551-2.041-.4655-.8951-.6983-1.9909-.6983-3.2871 0-1.2676.2113-2.3633.6338-3.2871.4297-.931 1.0313-1.6471 1.8047-2.1484.7806-.5013 1.6973-.752 2.75-.752zm-.0215 1.461c-.9524 0-1.7115.3115-2.2773.9345-.5658.6231-.9023 1.4932-1.0098 2.6104h6.2305c-.0072-.7018-.1182-1.3177-.333-1.8477-.2077-.5371-.5264-.9524-.9561-1.2461-.4297-.3007-.9811-.4511-1.6543-.4511zm20.8755-1.461c1.296 0 2.273.3402 2.932 1.0205.659.6732.988 1.7582.988 3.2549v7.7129h-1.761v-7.6269c0-.9525-.208-1.6651-.623-2.1377-.409-.4799-1.017-.7198-1.827-.7198-1.1382 0-1.9653.3295-2.4809.9883-.5157.6589-.7735 1.6292-.7735 2.9111v6.585h-1.7724v-7.6269c0-.6374-.0931-1.1674-.2793-1.5899-.1791-.4225-.4512-.7376-.8164-.9453-.3581-.2148-.8129-.3223-1.3643-.3223-.7806 0-1.4072.1612-1.8799.4834-.4726.3223-.8164.8021-1.0312 1.4395-.2077.6302-.3116 1.4072-.3116 2.331v6.2305h-1.7832v-11.7734h1.4395l.2685 1.665h.0967c.2364-.4082.5336-.7519.8916-1.0312.3581-.2793.7591-.4906 1.2032-.6338.444-.1433.9166-.2149 1.4179-.2149.8952 0 1.6436.1683 2.2451.5049.6088.3294 1.0492.8343 1.3213 1.5147h.0967c.3867-.6804.9167-1.1853 1.5898-1.5147.6732-.3366 1.4109-.5049 2.2134-.5049z" fill="#252a2e"/><path d="m1.5 1.8h508v54h-508z" stroke="#217cbb" stroke-width="2"/></svg>

<svg width="511" height="57" viewBox="0 0 511 57" fill="none" xmlns="http://www.w3.org/2000/svg"><rect x="1.5" y="1.8" width="508" height="54" fill="#DCEDF9"/><path d="M18.6484 37.7998V22.0947H20.4746V36.167H27.4463V37.7998H18.6484ZM31.9072 26.0264V37.7998H30.124V26.0264H31.9072ZM31.0371 21.6221C31.3307 21.6221 31.5814 21.7188 31.7891 21.9121C32.0039 22.0983 32.1113 22.3919 32.1113 22.793C32.1113 23.1868 32.0039 23.4805 31.7891 23.6738C31.5814 23.8672 31.3307 23.9639 31.0371 23.9639C30.7292 23.9639 30.4714 23.8672 30.2637 23.6738C30.0632 23.4805 29.9629 23.1868 29.9629 22.793C29.9629 22.3919 30.0632 22.0983 30.2637 21.9121C30.4714 21.7188 30.7292 21.6221 31.0371 21.6221ZM43.5547 34.5771C43.5547 35.3291 43.3649 35.9629 42.9854 36.4785C42.613 36.987 42.0758 37.3701 41.374 37.6279C40.6794 37.8857 39.8486 38.0146 38.8818 38.0146C38.0583 38.0146 37.3457 37.9502 36.7441 37.8213C36.1426 37.6924 35.6162 37.5098 35.165 37.2734V35.6299C35.6449 35.8662 36.2178 36.0811 36.8838 36.2744C37.5498 36.4678 38.2301 36.5645 38.9248 36.5645C39.9417 36.5645 40.6794 36.3997 41.1377 36.0703C41.596 35.7409 41.8252 35.2933 41.8252 34.7275C41.8252 34.4053 41.7321 34.1224 41.5459 33.8789C41.3669 33.6283 41.0625 33.3883 40.6328 33.1592C40.2031 32.9229 39.6087 32.665 38.8496 32.3857C38.0977 32.0993 37.446 31.8164 36.8945 31.5371C36.3503 31.2507 35.9277 30.9033 35.627 30.4951C35.3333 30.0869 35.1865 29.557 35.1865 28.9053C35.1865 27.9098 35.5876 27.1471 36.3896 26.6172C37.1989 26.0801 38.2588 25.8115 39.5693 25.8115C40.2783 25.8115 40.9408 25.8831 41.5566 26.0264C42.1797 26.1624 42.7598 26.3486 43.2969 26.585L42.6953 28.0137C42.2083 27.806 41.6891 27.6305 41.1377 27.4873C40.5863 27.3441 40.0241 27.2725 39.4512 27.2725C38.6276 27.2725 37.9938 27.4085 37.5498 27.6807C37.113 27.9528 36.8945 28.3252 36.8945 28.7979C36.8945 29.1631 36.9948 29.4639 37.1953 29.7002C37.403 29.9365 37.7324 30.1585 38.1836 30.3662C38.6348 30.5739 39.2292 30.8174 39.9668 31.0967C40.7044 31.3688 41.3418 31.6517 41.8789 31.9453C42.416 32.2318 42.8278 32.5827 43.1143 32.998C43.4079 33.4062 43.5547 33.9326 43.5547 34.5771ZM50.4756 36.5537C50.7692 36.5537 51.07 36.5286 51.3779 36.4785C51.6859 36.4284 51.9365 36.3675 52.1299 36.2959V37.6816C51.9222 37.7747 51.6322 37.8535 51.2598 37.918C50.8945 37.9824 50.5365 38.0146 50.1855 38.0146C49.5625 38.0146 48.9967 37.9072 48.4883 37.6924C47.9798 37.4704 47.5716 37.098 47.2637 36.5752C46.9629 36.0524 46.8125 35.3291 46.8125 34.4053V27.4229H45.1367V26.5527L46.8232 25.8545L47.5322 23.2979H48.6064V26.0264H52.0547V27.4229H48.6064V34.3516C48.6064 35.0892 48.7747 35.6406 49.1113 36.0059C49.4551 36.3711 49.9098 36.5537 50.4756 36.5537ZM60.998 37.7998V22.0947H62.8242V37.7998H60.998ZM70.9268 36.5537C71.2204 36.5537 71.5212 36.5286 71.8291 36.4785C72.137 36.4284 72.3877 36.3675 72.5811 36.2959V37.6816C72.3734 37.7747 72.0833 37.8535 71.7109 37.918C71.3457 37.9824 70.9876 38.0146 70.6367 38.0146C70.0137 38.0146 69.4479 37.9072 68.9395 37.6924C68.431 37.4704 68.0228 37.098 67.7148 36.5752C67.4141 36.0524 67.2637 35.3291 67.2637 34.4053V27.4229H65.5879V26.5527L67.2744 25.8545L67.9834 23.2979H69.0576V26.0264H72.5059V27.4229H69.0576V34.3516C69.0576 35.0892 69.2259 35.6406 69.5625 36.0059C69.9062 36.3711 70.361 36.5537 70.9268 36.5537ZM79.749 25.8115C80.7516 25.8115 81.611 26.0335 82.3271 26.4775C83.0433 26.9215 83.5911 27.5446 83.9707 28.3467C84.3503 29.1416 84.54 30.0726 84.54 31.1396V32.2461H76.4082C76.4297 33.6283 76.7734 34.681 77.4395 35.4043C78.1055 36.1276 79.0436 36.4893 80.2539 36.4893C80.9987 36.4893 81.6576 36.4212 82.2305 36.2852C82.8034 36.1491 83.3978 35.9486 84.0137 35.6836V37.252C83.4193 37.5169 82.8285 37.7103 82.2412 37.832C81.6611 37.9538 80.9736 38.0146 80.1787 38.0146C79.0472 38.0146 78.0589 37.7855 77.2139 37.3271C76.376 36.8617 75.7243 36.1813 75.2588 35.2861C74.7933 34.391 74.5605 33.2952 74.5605 31.999C74.5605 30.7314 74.7718 29.6357 75.1943 28.7119C75.624 27.7809 76.2256 27.0648 76.999 26.5635C77.7796 26.0622 78.6963 25.8115 79.749 25.8115ZM79.7275 27.2725C78.7751 27.2725 78.016 27.584 77.4502 28.207C76.8844 28.8301 76.5479 29.7002 76.4404 30.8174H82.6709C82.6637 30.1156 82.5527 29.4997 82.3379 28.9697C82.1302 28.4326 81.8115 28.0173 81.3818 27.7236C80.9521 27.4229 80.4007 27.2725 79.7275 27.2725ZM100.603 25.8115C101.899 25.8115 102.876 26.1517 103.535 26.832C104.194 27.5052 104.523 28.5902 104.523 30.0869V37.7998H102.762V30.1729C102.762 29.2204 102.554 28.5078 102.139 28.0352C101.73 27.5553 101.122 27.3154 100.312 27.3154C99.1738 27.3154 98.3467 27.6449 97.8311 28.3037C97.3154 28.9626 97.0576 29.9329 97.0576 31.2148V37.7998H95.2852V30.1729C95.2852 29.5355 95.1921 29.0055 95.0059 28.583C94.8268 28.1605 94.5547 27.8454 94.1895 27.6377C93.8314 27.4229 93.3766 27.3154 92.8252 27.3154C92.0446 27.3154 91.418 27.4766 90.9453 27.7988C90.4727 28.1211 90.1289 28.6009 89.9141 29.2383C89.7064 29.8685 89.6025 30.6455 89.6025 31.5693V37.7998H87.8193V26.0264H89.2588L89.5273 27.6914H89.624C89.8604 27.2832 90.1576 26.9395 90.5156 26.6602C90.8737 26.3809 91.2747 26.1696 91.7188 26.0264C92.1628 25.8831 92.6354 25.8115 93.1367 25.8115C94.0319 25.8115 94.7803 25.9798 95.3818 26.3164C95.9906 26.6458 96.431 27.1507 96.7031 27.8311H96.7998C97.1865 27.1507 97.7165 26.6458 98.3896 26.3164C99.0628 25.9798 99.8005 25.8115 100.603 25.8115Z" fill="#252A2E"/><rect x="1.5" y="1.8" width="508" height="54" stroke="#217CBB" stroke-width="2"/></svg>
